X:011
T:Wiltshire 6 Hand Reel
M:2/2
L:1/8
K:G
GA | B2 D2 G2 A2 | B2 D2 G2 A2 | B2 B2 c3 B | B2 A2 A4 |
A2 D2 F2 G2 | A2 D2 F2 G2 | A2 A2 B3 A | A2 G2 G2 GA |
B2 D2 G2 A2 | B2 D2 G2 A2 | B2 B2 c3 B | B2 A2 A4 |
A2 D2 F2 G2 | A2 D2 F2 G2 | A2 A2 B3 A | A2 G2 G4 ||
d2 GG G2 G2 | F2 E2 E4 | c2 FF F2 F2 | E2 DE D4 |
d2 GG G2 G2 | F2 E2 E4 | E2 G2 F2 A2 | G4 G4 |
d2 GG G2 G2 | F2 E2 E4 | c2 FF F2 F2 | E2 DE D4 |
d2 GG G2 G2 | F2 E2 E4 | E2 G2 F2 A2 | G4 G2 ||
